X: 1
T: Sixpenny Money
R: jig
M: 6/8
L: 1/8
K: Dmaj
fAA fAA|BAG FGE|DED AFA|dfd efg|
FAA FAA|BAG FGE|DED AFA|dfd e2 d:||
fef gfg|afd ede|fef gfg|afd e2 d|
fef gfg|afd fga|ABA AFA|dfd e2 d:||


Tune 387	Setting 27152

